64x64/apps/mu.codewith.editor.svg

<svg height="64" width="64" xmlns="http://www.w3.org/2000/svg"><circle cx="32" cy="33" opacity=".2" r="28"/><circle cx="32" cy="32" fill="#f4f4f7" r="28"/><path d="m32 4a28 28 0 0 0 -28 28 28 28 0 0 0 .021.586 28 28 0 0 1 27.979-27.586 28 28 0 0 1 27.979 27.414 28 28 0 0 0 .021-.414 28 28 0 0 0 -28-28z" fill="#f4f4f7" opacity=".2"/><path d="m32 19c-17 0-17 8-17 8v28.205a28 28 0 0 0 14.186 5.652h.013v-27.857h22.801v-6s0-8-20-8z" opacity=".1"/><path d="m32 18c-17 0-17 8-17 8v28.205a28 28 0 0 0 14.186 5.652h.013v-27.857h22.801v-6s0-8-20-8z" fill="#c83928"/><circle cx="43" cy="27" opacity=".2" r="3"/><circle cx="43" cy="26" fill="#f4f4f7" r="3"/></svg>

<svg width="64" height="64" xmlns="http://www.w3.org/2000/svg"><circle cx="32" cy="33" r="28" style="opacity:.2"/><circle cx="32" cy="32" r="28" style="fill:#f4f4f7"/><path d="M32 4A28 28 0 0 0 4 32a28 28 0 0 0 .021.586A28 28 0 0 1 32 5a28 28 0 0 1 27.979 27.414A28 28 0 0 0 60 32 28 28 0 0 0 32 4z" style="fill:#f4f4f7;opacity:.2"/><path d="M32 19c-17 0-17 8-17 8v28.205a28 28 0 0 0 14.186 5.652h.013V33H52v-6s0-8-20-8z" style="opacity:.1"/><path d="M32 18c-17 0-17 8-17 8v28.205a28 28 0 0 0 14.186 5.652h.013V32H52v-6s0-8-20-8z" style="fill:#c83928"/><circle cx="43" cy="27" r="3" style="opacity:.2"/><circle cx="43" cy="26" r="3" style="fill:#f4f4f7"/></svg>
